dist/icons/svgs/folder-outline.svg

<svg xmlns="http://www.w3.org/2000/svg" width="24" height="24" fill="currentcolor" class="icon-folder-outline" viewBox="0 0 24 24">
  <path d="M2 5.75C2 4.38281 3.09375 3.25 4.5 3.25H9.65625C10.3984 3.25 11.1016 3.5625 11.6484 4.10938L13.2891 5.75H19.5C20.8672 5.75 22 6.88281 22 8.25V18.25C22 19.6562 20.8672 20.75 19.5 20.75H4.5C3.09375 20.75 2 19.6562 2 18.25V5.75ZM4.5 5.125C4.14844 5.125 3.875 5.4375 3.875 5.75V18.25C3.875 18.6016 4.14844 18.875 4.5 18.875H19.5C19.8125 18.875 20.125 18.6016 20.125 18.25V8.25C20.125 7.9375 19.8125 7.625 19.5 7.625H13.1719C12.7812 7.625 12.3516 7.46875 12.0781 7.19531L10.3203 5.39844C10.125 5.24219 9.89062 5.125 9.65625 5.125H4.5Z"/>
</svg>

<svg xmlns="http://www.w3.org/2000/svg" width="24" height="24" fill="currentColor" class="icon-folder-outline" viewBox="0 0 24 24">
  <path d="M2 5.75c0-1.367 1.094-2.5 2.5-2.5h5.156c.742 0 1.446.313 1.992.86l1.641 1.64H19.5c1.367 0 2.5 1.133 2.5 2.5v10c0 1.406-1.133 2.5-2.5 2.5h-15a2.47 2.47 0 0 1-2.5-2.5zm2.5-.625a.64.64 0 0 0-.625.625v12.5c0 .352.273.625.625.625h15a.64.64 0 0 0 .625-.625v-10c0-.312-.312-.625-.625-.625h-6.328c-.39 0-.82-.156-1.094-.43L10.32 5.398c-.195-.156-.43-.273-.664-.273z"/>
</svg>
